packages/assets/static/images/icons/globe-simple-x.svg

<svg width="24" height="24" viewBox="0 0 24 24" xmlns="http://www.w3.org/2000/svg">
<path d="M11.9999 2.25049C9.41408 2.25049 6.93413 3.27772 5.10565 5.1062C3.27717 6.93468 2.24994 9.41463 2.24994 12.0005C2.24994 14.5863 3.27717 17.0663 5.10565 18.8948C6.93413 20.7233 9.41408 21.7505 11.9999 21.7505C12.155 21.7501 12.3061 21.7017 12.4325 21.6119C12.5589 21.5222 12.6544 21.3954 12.7058 21.2491C12.7572 21.1028 12.762 20.9442 12.7195 20.7951C12.6771 20.646 12.5894 20.5137 12.4687 20.4164C12.3637 20.3311 10.5112 18.7927 9.55681 15.7505H11.9943C12.1932 15.7505 12.384 15.6715 12.5246 15.5308C12.6653 15.3902 12.7443 15.1994 12.7443 15.0005C12.7443 14.8016 12.6653 14.6108 12.5246 14.4702C12.384 14.3295 12.1932 14.2505 11.9943 14.2505H9.19494C8.9362 12.7616 8.9362 11.2393 9.19494 9.75049H14.8087C14.9379 10.4935 15.0019 11.2463 14.9999 12.0005C14.9999 12.1994 15.079 12.3902 15.2196 12.5308C15.3603 12.6715 15.551 12.7505 15.7499 12.7505C15.9489 12.7505 16.1396 12.6715 16.2803 12.5308C16.4209 12.3902 16.4999 12.1994 16.4999 12.0005C16.501 11.2471 16.4433 10.4949 16.3274 9.75049H19.9378C20.1455 10.4824 20.2506 11.2396 20.2499 12.0005C20.2499 12.1994 20.329 12.3902 20.4696 12.5308C20.6103 12.6715 20.801 12.7505 20.9999 12.7505C21.1989 12.7505 21.3896 12.6715 21.5303 12.5308C21.6709 12.3902 21.7499 12.1994 21.7499 12.0005C21.7472 9.41547 20.7191 6.9371 18.8912 5.10921C17.0633 3.28132 14.585 2.25322 11.9999 2.25049ZM10.0865 3.97549C9.12612 5.25581 8.41676 6.70634 7.99588 8.25049H4.65275C5.19676 7.18833 5.964 6.25636 6.9019 5.51848C7.83979 4.78059 8.92615 4.25423 10.0865 3.97549ZM10.0865 20.0255C8.92547 19.7472 7.83837 19.2211 6.8998 18.4832C5.96123 17.7453 5.1934 16.8131 4.649 15.7505H7.99588C8.41676 17.2946 9.12612 18.7452 10.0865 20.0255ZM7.67244 14.2505H4.06213C3.64587 12.7794 3.64587 11.2216 4.06213 9.75049H7.67244C7.44244 11.2417 7.44244 12.7593 7.67244 14.2505ZM9.56244 8.25049C10.0427 6.67681 10.8765 5.23378 11.9999 4.03174C13.123 5.2341 13.9567 6.67702 14.4374 8.25049H9.56244ZM16.0078 8.25049C15.5869 6.70634 14.8775 5.25581 13.9171 3.97549C15.0782 4.25375 16.1653 4.77988 17.1038 5.51779C18.0424 6.2557 18.8102 7.18792 19.3546 8.25049H16.0078ZM20.7843 16.2811L19.0603 18.0005L20.7806 19.7199C20.8502 19.7895 20.9055 19.8723 20.9432 19.9633C20.9809 20.0544 21.0004 20.1519 21.0004 20.2505C21.0004 20.349 20.9809 20.4466 20.9432 20.5377C20.9055 20.6287 20.8502 20.7114 20.7806 20.7811C20.7109 20.8508 20.6282 20.9061 20.5371 20.9438C20.4461 20.9815 20.3485 21.0009 20.2499 21.0009C20.1514 21.0009 20.0538 20.9815 19.9628 20.9438C19.8717 20.9061 19.789 20.8508 19.7193 20.7811L17.9999 19.0608L16.2806 20.7811C16.1398 20.9218 15.949 21.0009 15.7499 21.0009C15.5509 21.0009 15.36 20.9218 15.2193 20.7811C15.0786 20.6404 14.9995 20.4495 14.9995 20.2505C14.9995 20.0515 15.0786 19.8606 15.2193 19.7199L16.9396 18.0005L15.2193 16.2811C15.0786 16.1404 14.9995 15.9495 14.9995 15.7505C14.9995 15.5515 15.0786 15.3606 15.2193 15.2199C15.36 15.0791 15.5509 15.0001 15.7499 15.0001C15.949 15.0001 16.1398 15.0791 16.2806 15.2199L17.9999 16.9402L19.7193 15.2199C19.86 15.0791 20.0509 15.0001 20.2499 15.0001C20.449 15.0001 20.6398 15.0791 20.7806 15.2199C20.9213 15.3606 21.0004 15.5515 21.0004 15.7505C21.0004 15.9495 20.9213 16.1404 20.7806 16.2811H20.7843Z"/>
</svg>

<svg viewBox="0 0 24 24" xmlns="http://www.w3.org/2000/svg" aria-hidden="true" fill="currentColor"><path d="M12 2.25a9.75 9.75 0 0 0 0 19.5.75.75 0 0 0 .469-1.334c-.105-.085-1.958-1.623-2.912-4.665h2.437a.75.75 0 1 0 0-1.5h-2.8a13.1 13.1 0 0 1 0-4.5h5.615c.129.742.193 1.495.19 2.25a.75.75 0 0 0 1.5 0 14.5 14.5 0 0 0-.172-2.25h3.61c.208.731.314 1.489.313 2.25a.75.75 0 0 0 1.5 0A9.76 9.76 0 0 0 12 2.25m-1.914 1.725a12.7 12.7 0 0 0-2.09 4.275H4.653a8.28 8.28 0 0 1 5.434-4.275m0 16.05a8.28 8.28 0 0 1-5.437-4.274h3.347a12.7 12.7 0 0 0 2.09 4.275m-2.414-5.774h-3.61a8.26 8.26 0 0 1 0-4.5h3.61a14.8 14.8 0 0 0 0 4.5m1.89-6A10.8 10.8 0 0 1 12 4.03a10.8 10.8 0 0 1 2.437 4.22zm6.446 0a12.7 12.7 0 0 0-2.09-4.276 8.28 8.28 0 0 1 5.437 4.275zm4.776 8.03-1.724 1.72 1.72 1.719a.75.75 0 0 1-1.06 1.061L18 19.061l-1.72 1.72a.75.75 0 0 1-1.06-1.061L16.94 18l-1.72-1.719a.75.75 0 1 1 1.06-1.061L18 16.94l1.72-1.72a.75.75 0 1 1 1.06 1.061z"/></svg>
